assets/illustrations/multisize/40/vstx.svg

<svg id="571877f3-c177-4824-94d5-d2b6fd1b70b8" data-name="ICONS" xmlns="http://www.w3.org/2000/svg" xmlns:xlink="http://www.w3.org/1999/xlink" viewBox="0 0 40 40"><defs><linearGradient id="9a90cfdc-6c93-409d-9ad4-430fcbe538b8" x1="23" y1="37.90625" x2="23" y2="35.08751" gradientUnits="userSpaceOnUse"><stop offset="0" stop-color="#828282" stop-opacity="0"/><stop offset="0.86247" stop-color="#303030" stop-opacity="0.06315"/><stop offset="1" stop-opacity="0.1"/></linearGradient><linearGradient id="e9e2974a-8efa-4912-9035-6011f7d5957e" x1="11.5" y1="32.79198" x2="11.5" y2="12.21733" gradientUnits="userSpaceOnUse"><stop offset="0" stop-color="#fff" stop-opacity="0"/><stop offset="0.52587" stop-color="#fff" stop-opacity="0.00735"/><stop offset="0.71529" stop-color="#fff" stop-opacity="0.03396"/><stop offset="0.8503" stop-color="#fff" stop-opacity="0.0803"/><stop offset="0.95875" stop-color="#fff" stop-opacity="0.14595"/><stop offset="1" stop-color="#fff" stop-opacity="0.18"/></linearGradient><linearGradient id="434d427f-1206-4936-9d8f-b304717428a6" x1="22.9099" y1="6.21915" x2="23.13365" y2="1.94985" gradientUnits="userSpaceOnUse"><stop offset="0" stop-color="#fff" stop-opacity="0"/><stop offset="0.44604" stop-color="#fff" stop-opacity="0.00799"/><stop offset="0.63551" stop-color="#fff" stop-opacity="0.03616"/><stop offset="0.77636" stop-color="#fff" stop-opacity="0.08493"/><stop offset="0.8924" stop-color="#fff" stop-opacity="0.15385"/><stop offset="0.99328" stop-color="#fff" stop-opacity="0.24291"/><stop offset="1" stop-color="#fff" stop-opacity="0.25"/></linearGradient><linearGradient id="551f9978-87f2-4a43-b26e-a357be49e4ef" x1="19.12564" y1="15.62113" x2="36.75778" y2="38.18924" gradientUnits="userSpaceOnUse"><stop offset="0" stop-color="#fff" stop-opacity="0"/><stop offset="0.86247" stop-color="#5e5e5e" stop-opacity="0.06315"/><stop offset="1" stop-opacity="0.1"/></linearGradient><linearGradient id="1ebf2899-865b-46a7-abc6-3901a63494c8" x1="9.96994" y1="6.2422" x2="33.03006" y2="35.7578" xlink:href="#551f9978-87f2-4a43-b26e-a357be49e4ef"/><linearGradient id="9533501d-9571-427e-9204-171e9fdd28b6" x1="14.30706" y1="36.67182" x2="14.65748" y2="33.37204" gradientUnits="userSpaceOnUse"><stop offset="0" stop-color="#828282" stop-opacity="0"/><stop offset="0.99719" stop-opacity="0.2"/></linearGradient></defs><title>FileTypeIcons_Master_All_NEW</title><polygon points="34 5 34 2 9 2 9 35 12 35 12 38 37 38 37 5 34 5" fill="#fff"/><polygon points="36 6 36 37 13 37 13 35 34 35 34 7 33 7 33 34 13 34 12 34 10 34 10 7 9 7 9 35 12 35 12 38 37 38 37 7 36 6" fill="#949494"/><path d="M21,20v5H16V20h5m1-1H15v7h7V19Z" fill="#c8c8c8"/><polygon points="34 2 9 2 9 7 34 7 34 4 37 7 37 5 34 2" fill="#3955a3"/><polygon points="3 13 20 11 20 34 3 32 3 13" fill="#3955a3"/><path d="M27.5,26A2.5,2.5,0,1,1,25,28.5,2.50294,2.50294,0,0,1,27.5,26m0-1A3.5,3.5,0,1,0,31,28.5,3.49985,3.49985,0,0,0,27.5,25Z" fill="#c8c8c8"/><path d="M25.5,13A2.5,2.5,0,1,1,23,15.5,2.50294,2.50294,0,0,1,25.5,13m0-1A3.5,3.5,0,1,0,29,15.5,3.49985,3.49985,0,0,0,25.5,12Z" fill="#c8c8c8"/><rect x="22" y="22" width="6" height="1" fill="#c8c8c8"/><rect x="27" y="22" width="1" height="4" fill="#c8c8c8"/><rect x="25" y="19" width="1" height="4" fill="#c8c8c8"/><circle cx="12.5" cy="9.5" r="0.5" fill="#c8c8c8"/><circle cx="15.5" cy="9.5" r="0.5" fill="#c8c8c8"/><circle cx="18.5" cy="9.5" r="0.5" fill="#c8c8c8"/><circle cx="21.5" cy="9.5" r="0.5" fill="#c8c8c8"/><circle cx="24.5" cy="9.5" r="0.5" fill="#c8c8c8"/><circle cx="30.5" cy="23.5" r="0.5" fill="#c8c8c8"/><circle cx="22.5" cy="31.5" r="0.5" fill="#c8c8c8"/><circle cx="30.5" cy="20.5" r="0.5" fill="#c8c8c8"/><circle cx="30.5" cy="17.5" r="0.5" fill="#c8c8c8"/><circle cx="30.5" cy="14.5" r="0.5" fill="#c8c8c8"/><path d="M16,18l-3.29822,9H10.25816L7,18H9.32344l1.99629,6.2636a4.26062,4.26062,0,0,1,.19362.89749h.04006a4.802,4.802,0,0,1,.207-.9226L13.74332,18Z" fill="#fff"/><rect x="12" y="35" width="22" height="3" fill="url(#9a90cfdc-6c93-409d-9ad4-430fcbe538b8)"/><polygon points="20 34 3 32 3 13 20 11 20 34" fill="url(#e9e2974a-8efa-4912-9035-6011f7d5957e)"/><polygon points="34 2 9 2 9 7 34 7 34 4 37 7 37 5 34 2" fill="url(#434d427f-1206-4936-9d8f-b304717428a6)"/><polygon points="34 4 34 35 13 35 12 35 12 38 37 38 37 7 34 4" fill="url(#551f9978-87f2-4a43-b26e-a357be49e4ef)"/><polygon points="9 7 9 35 12 35 13 35 34 35 34 10.394 34 9.545 34 7 9 7" fill="url(#1ebf2899-865b-46a7-abc6-3901a63494c8)"/><polygon points="20 37 12 37 12 35 9 35 9 32.71 20 34 20 37" fill="url(#9533501d-9571-427e-9204-171e9fdd28b6)"/></svg>

<?xml version="1.0" encoding="utf-8"?>
<!-- Generator: Adobe Illustrator 21.1.0, SVG Export Plug-In . SVG Version: 6.00 Build 0)  -->
<svg version="1.1" xmlns="http://www.w3.org/2000/svg" xmlns:xlink="http://www.w3.org/1999/xlink" x="0px" y="0px"
	 viewBox="0 0 40 40" enable-background="new 0 0 40 40" xml:space="preserve">
<g id="TEMPLATE" display="none">
	<g display="inline">
		<path fill="#D0D0D0" d="M40,0v40H0V0H40 M41-1h-1H0h-1v1v40v1h1h40h1v-1V0V-1L41-1z"/>
	</g>
	<g display="inline" opacity="0.1">
		<path fill="#FF3A6D" d="M38,2v36H2V2H38 M40,0H0v40h40V0L40,0z"/>
	</g>
</g>
<g id="ICONS">
	<polygon fill="#FFFFFF" points="34,5 34,2 9,2 9,35 12,35 12,38 37,38 37,5 	"/>
	<polygon fill="#949494" points="36,6 36,37 13,37 13,35 34,35 34,7 33,7 33,34 13,34 12,34 10,34 10,7 9,7 9,35 12,35 12,38 37,38 
		37,7 	"/>
	<g>
		<path fill="#C8C8C8" d="M21,20v5h-5v-5H21 M22,19h-7v7h7V19L22,19z"/>
	</g>
	<polygon fill="#3955A3" points="34,2 9,2 9,7 34,7 34,4 37,7 37,5 	"/>
	<polygon fill="#3955A3" points="3,13 20,11 20,34 3,32 	"/>
	<g>
		<path fill="#C8C8C8" d="M27.5,26c1.3784,0,2.5,1.1216,2.5,2.5S28.8784,31,27.5,31S25,29.8784,25,28.5S26.1216,26,27.5,26 M27.5,25
			c-1.9331,0-3.5,1.5669-3.5,3.5s1.5669,3.5,3.5,3.5s3.5-1.5669,3.5-3.5S29.4331,25,27.5,25L27.5,25z"/>
	</g>
	<g>
		<path fill="#C8C8C8" d="M25.5,13c1.3784,0,2.5,1.1216,2.5,2.5S26.8784,18,25.5,18S23,16.8784,23,15.5S24.1216,13,25.5,13 M25.5,12
			c-1.9331,0-3.5,1.5669-3.5,3.5s1.5669,3.5,3.5,3.5s3.5-1.5669,3.5-3.5S27.4331,12,25.5,12L25.5,12z"/>
	</g>
	<g>
		<rect x="22" y="22" fill="#C8C8C8" width="6" height="1"/>
	</g>
	<g>
		<rect x="27" y="22" fill="#C8C8C8" width="1" height="4"/>
	</g>
	<g>
		<rect x="25" y="19" fill="#C8C8C8" width="1" height="4"/>
	</g>
	<g>
		<circle fill="#C8C8C8" cx="12.5" cy="9.5" r="0.5"/>
	</g>
	<g>
		<circle fill="#C8C8C8" cx="15.5" cy="9.5" r="0.5"/>
	</g>
	<g>
		<circle fill="#C8C8C8" cx="18.5" cy="9.5" r="0.5"/>
	</g>
	<g>
		<circle fill="#C8C8C8" cx="21.5" cy="9.5" r="0.5"/>
	</g>
	<g>
		<circle fill="#C8C8C8" cx="24.5" cy="9.5" r="0.5"/>
	</g>
	<g>
		<circle fill="#C8C8C8" cx="30.5" cy="23.5" r="0.5"/>
	</g>
	<g>
		<circle fill="#C8C8C8" cx="22.5" cy="31.5" r="0.5"/>
	</g>
	<g>
		<circle fill="#C8C8C8" cx="30.5" cy="20.5" r="0.5"/>
	</g>
	<g>
		<circle fill="#C8C8C8" cx="30.5" cy="17.5" r="0.5"/>
	</g>
	<g>
		<circle fill="#C8C8C8" cx="30.5" cy="14.5" r="0.5"/>
	</g>
	<g>
		<path fill="#FFFFFF" d="M16,18l-3.2982,9h-2.4436L7,18h2.3234l1.9963,6.2636c0.1068,0.3389,0.1712,0.6382,0.1936,0.8975h0.0401
			c0.031-0.2802,0.1001-0.5877,0.207-0.9226L13.7433,18H16z"/>
	</g>
	<linearGradient id="SVGID_1_" gradientUnits="userSpaceOnUse" x1="23" y1="37.9063" x2="23" y2="35.0875">
		<stop  offset="0" style="stop-color:#828282;stop-opacity:0"/>
		<stop  offset="0.2812" style="stop-color:#7F7F7F;stop-opacity:0.0281"/>
		<stop  offset="0.4503" style="stop-color:#777777;stop-opacity:0.045"/>
		<stop  offset="0.5899" style="stop-color:#696969;stop-opacity:0.059"/>
		<stop  offset="0.7133" style="stop-color:#545454;stop-opacity:0.0713"/>
		<stop  offset="0.8259" style="stop-color:#3A3A3A;stop-opacity:0.0826"/>
		<stop  offset="0.9294" style="stop-color:#1A1A1A;stop-opacity:0.0929"/>
		<stop  offset="1" style="stop-color:#000000;stop-opacity:0.1"/>
	</linearGradient>
	<rect x="12" y="35" fill="url(#SVGID_1_)" width="22" height="3"/>
	<linearGradient id="SVGID_2_" gradientUnits="userSpaceOnUse" x1="11.5" y1="32.792" x2="11.5" y2="12.2173">
		<stop  offset="0" style="stop-color:#FFFFFF;stop-opacity:0"/>
		<stop  offset="0.8587" style="stop-color:#FFFFFF;stop-opacity:0.1546"/>
		<stop  offset="1" style="stop-color:#FFFFFF;stop-opacity:0.18"/>
	</linearGradient>
	<polygon fill="url(#SVGID_2_)" points="20,34 3,32 3,13 20,11 	"/>
	<linearGradient id="SVGID_3_" gradientUnits="userSpaceOnUse" x1="22.9099" y1="6.2191" x2="23.1336" y2="1.9499">
		<stop  offset="0" style="stop-color:#FFFFFF;stop-opacity:0"/>
		<stop  offset="0.8537" style="stop-color:#FFFFFF;stop-opacity:0.2134"/>
		<stop  offset="1" style="stop-color:#FFFFFF;stop-opacity:0.25"/>
	</linearGradient>
	<polygon fill="url(#SVGID_3_)" points="34,2 9,2 9,7 34,7 34,4 37,7 37,5 	"/>
	<linearGradient id="SVGID_4_" gradientUnits="userSpaceOnUse" x1="19.1256" y1="15.6211" x2="36.7578" y2="38.1892">
		<stop  offset="0" style="stop-color:#FFFFFF;stop-opacity:0"/>
		<stop  offset="0.2264" style="stop-color:#FCFCFC;stop-opacity:0.0226"/>
		<stop  offset="0.3626" style="stop-color:#F4F4F4;stop-opacity:0.0363"/>
		<stop  offset="0.475" style="stop-color:#E6E6E6;stop-opacity:0.0475"/>
		<stop  offset="0.5744" style="stop-color:#D1D1D1;stop-opacity:0.0574"/>
		<stop  offset="0.6652" style="stop-color:#B7B7B7;stop-opacity:0.0665"/>
		<stop  offset="0.7498" style="stop-color:#979797;stop-opacity:0.075"/>
		<stop  offset="0.8297" style="stop-color:#707070;stop-opacity:0.083"/>
		<stop  offset="0.9057" style="stop-color:#444444;stop-opacity:0.0906"/>
		<stop  offset="0.9761" style="stop-color:#121212;stop-opacity:0.0976"/>
		<stop  offset="1" style="stop-color:#000000;stop-opacity:0.1"/>
	</linearGradient>
	<polygon fill="url(#SVGID_4_)" points="34,4 34,35 13,35 12,35 12,38 37,38 37,7 	"/>
	<linearGradient id="SVGID_5_" gradientUnits="userSpaceOnUse" x1="9.9699" y1="6.2422" x2="33.0301" y2="35.7578">
		<stop  offset="0" style="stop-color:#FFFFFF;stop-opacity:0"/>
		<stop  offset="0.2264" style="stop-color:#FCFCFC;stop-opacity:0.0226"/>
		<stop  offset="0.3626" style="stop-color:#F4F4F4;stop-opacity:0.0363"/>
		<stop  offset="0.475" style="stop-color:#E6E6E6;stop-opacity:0.0475"/>
		<stop  offset="0.5744" style="stop-color:#D1D1D1;stop-opacity:0.0574"/>
		<stop  offset="0.6652" style="stop-color:#B7B7B7;stop-opacity:0.0665"/>
		<stop  offset="0.7498" style="stop-color:#979797;stop-opacity:0.075"/>
		<stop  offset="0.8297" style="stop-color:#707070;stop-opacity:0.083"/>
		<stop  offset="0.9057" style="stop-color:#444444;stop-opacity:0.0906"/>
		<stop  offset="0.9761" style="stop-color:#121212;stop-opacity:0.0976"/>
		<stop  offset="1" style="stop-color:#000000;stop-opacity:0.1"/>
	</linearGradient>
	<polygon fill="url(#SVGID_5_)" points="9,7 9,35 12,35 13,35 34,35 34,10.3939 34,9.5455 34,7 	"/>
	<linearGradient id="SVGID_6_" gradientUnits="userSpaceOnUse" x1="14.3071" y1="36.6718" x2="14.6575" y2="33.372">
		<stop  offset="0" style="stop-color:#828282;stop-opacity:0"/>
		<stop  offset="0.1699" style="stop-color:#7E7E7E;stop-opacity:0.0341"/>
		<stop  offset="0.346" style="stop-color:#717171;stop-opacity:0.0694"/>
		<stop  offset="0.5248" style="stop-color:#5D5D5D;stop-opacity:0.1053"/>
		<stop  offset="0.7057" style="stop-color:#404040;stop-opacity:0.1415"/>
		<stop  offset="0.8863" style="stop-color:#1B1B1B;stop-opacity:0.1778"/>
		<stop  offset="0.9972" style="stop-color:#000000;stop-opacity:0.2"/>
	</linearGradient>
	<polygon fill="url(#SVGID_6_)" points="20,37 12,37 12,35 9,35 9,32.71 20,34 	"/>
</g>
</svg>
